theme/img/top/mv_txt.svg

<svg width="1383" height="216" viewBox="0 0 1383 216" fill="none" xmlns="http://www.w3.org/2000/svg">
<path d="M1378.06 209.88C1378.06 208.56 1379.14 207.48 1380.46 207.48C1381.78 207.48 1382.86 208.56 1382.86 209.88C1382.86 211.2 1381.78 212.28 1380.46 212.28C1379.14 212.28 1378.06 211.2 1378.06 209.88Z" fill="white"/>
<path d="M1370.65 206.12L1373.93 207.96C1373.21 209.24 1372.17 210.36 1371.09 211.04C1369.73 211.92 1367.93 212.32 1366.13 212.32C1363.89 212.32 1362.05 211.76 1360.45 210.16C1358.85 208.56 1357.97 206.24 1357.97 203.72C1357.97 201.12 1358.89 198.6 1360.65 196.8C1362.05 195.4 1363.89 194.52 1366.29 194.52C1368.97 194.52 1370.69 195.68 1371.69 196.72C1373.85 198.96 1374.05 202.08 1374.05 203.84V204.32H1361.97C1362.05 205.52 1362.57 206.88 1363.41 207.72C1364.33 208.64 1365.45 208.8 1366.41 208.8C1367.49 208.8 1368.29 208.56 1369.09 207.96C1369.77 207.44 1370.29 206.76 1370.65 206.12ZM1362.25 201.12H1370.05C1369.89 200.2 1369.45 199.4 1368.85 198.84C1368.33 198.36 1367.49 197.88 1366.21 197.88C1364.85 197.88 1363.97 198.44 1363.45 198.96C1362.89 199.48 1362.45 200.28 1362.25 201.12Z" fill="white"/>
<path d="M1339.39 211.8V194.96H1343.31V196.52C1344.99 194.64 1346.91 194.52 1347.87 194.52C1350.99 194.52 1352.31 196.08 1352.83 196.8C1353.47 197.72 1353.87 198.88 1353.87 201.48V211.8H1349.95V202.44C1349.95 198.16 1348.35 198.04 1346.87 198.04C1345.11 198.04 1343.31 198.28 1343.31 203.72V211.8H1339.39Z" fill="white"/>
<path d="M1330.57 194.96H1334.49V211.8H1330.57V194.96ZM1330.01 188C1330.01 186.56 1331.09 185.48 1332.53 185.48C1333.97 185.48 1335.05 186.56 1335.05 188C1335.05 189.44 1333.97 190.52 1332.53 190.52C1331.09 190.52 1330.01 189.44 1330.01 188Z" fill="white"/>
<path d="M1321.7 182.64H1325.62V211.8H1321.7V182.64Z" fill="white"/>
<path d="M1307.62 205.32V201.24H1317.23V205.32H1307.62Z" fill="white"/>
<path d="M1288.65 211.8V194.96H1292.57V196.52C1294.25 194.64 1296.17 194.52 1297.13 194.52C1300.25 194.52 1301.57 196.08 1302.09 196.8C1302.73 197.72 1303.13 198.88 1303.13 201.48V211.8H1299.21V202.44C1299.21 198.16 1297.61 198.04 1296.13 198.04C1294.37 198.04 1292.57 198.28 1292.57 203.72V211.8H1288.65Z" fill="white"/>
<path d="M1275.6 194.52C1280.68 194.52 1284.6 198.2 1284.6 203.4C1284.6 208.56 1280.68 212.32 1275.6 212.32C1270.52 212.32 1266.6 208.56 1266.6 203.4C1266.6 198.2 1270.52 194.52 1275.6 194.52ZM1275.6 208.8C1278.68 208.8 1280.6 206.68 1280.6 203.44C1280.6 199.6 1278.08 198.04 1275.6 198.04C1273.12 198.04 1270.6 199.6 1270.6 203.44C1270.6 206.68 1272.52 208.8 1275.6 208.8Z" fill="white"/>
<path d="M1201.47 211.8L1180.47 163.5H1094.97L1073.07 211.8H1040.07L1139.67 0L1234.47 211.8H1201.47ZM1107.57 134.7H1168.17L1138.47 66.9L1107.57 134.7Z" fill="white"/>
<path d="M945.762 135.9V107.7H1028.26V109.2C1028.26 143.4 1018.06 171.3 998.562 190.2C977.862 210.3 953.262 215.7 930.462 215.7C901.362 215.7 880.662 207.3 862.362 188.4C842.862 168.3 832.662 141.6 832.662 112.8C832.662 81.6 845.262 54.6 861.762 38.1C878.862 20.7 906.162 8.10004 937.062 8.10004C955.062 8.10004 973.662 12 989.262 20.7C1005.76 30 1015.96 41.7 1021.66 50.7L997.362 67.8C991.362 59.4 982.362 50.4 972.762 45C961.662 38.4 949.662 36.3 937.362 36.3C911.262 36.3 894.462 47.1 884.562 57C871.362 70.2 863.262 91.5 863.262 113.1C863.262 133.2 870.762 153.3 883.962 167.4C897.762 182.1 914.862 187.5 934.062 187.5C951.462 187.5 965.862 182.4 978.762 169.8C989.862 159 994.362 147.3 995.562 135.9H945.762Z" fill="white"/>
<path d="M699.75 8.10004C759.75 8.10004 803.85 53.1 803.85 111.9C803.85 170.7 759.75 215.7 699.75 215.7C639.75 215.7 595.65 170.7 595.65 111.9C595.65 53.1 639.75 8.10004 699.75 8.10004ZM699.75 187.5C742.65 187.5 773.25 156.3 773.25 111.9C773.25 67.5 742.65 36.3 699.75 36.3C656.85 36.3 626.25 67.5 626.25 111.9C626.25 156.3 656.85 187.5 699.75 187.5Z" fill="white"/>
<path d="M494.02 211.8V125.4L428.32 11.7H463.12L509.32 91.8L555.52 11.7H590.32L524.62 125.4V211.8H494.02Z" fill="white"/>
<path d="M186.012 11.7H216.612V132.3C216.612 143.1 216.912 156.3 222.912 166.8C228.912 177 242.412 187.5 260.112 187.5C277.812 187.5 291.312 177 297.312 166.8C303.312 156.3 303.612 143.1 303.612 132.3V11.7H334.212V140.4C334.212 156.3 330.912 175.5 315.612 192.3C305.112 203.7 287.412 215.7 260.112 215.7C232.812 215.7 215.112 203.7 204.612 192.3C189.312 175.5 186.012 156.3 186.012 140.4V11.7Z" fill="white"/>
<path d="M65.7 211.8V125.4L0 11.7H34.8L81 91.8L127.2 11.7H162L96.3 125.4V211.8H65.7Z" fill="white"/>
</svg>

<svg xmlns="http://www.w3.org/2000/svg" width="1383" height="216" fill="none"><path fill="#fff" d="M1378.06 209.88c0-1.32 1.08-2.4 2.4-2.4s2.4 1.08 2.4 2.4-1.08 2.4-2.4 2.4-2.4-1.08-2.4-2.4m-7.41-3.76 3.28 1.84c-.72 1.28-1.76 2.4-2.84 3.08-1.36.88-3.16 1.28-4.96 1.28-2.24 0-4.08-.56-5.68-2.16s-2.48-3.92-2.48-6.44c0-2.6.92-5.12 2.68-6.92 1.4-1.4 3.24-2.28 5.64-2.28 2.68 0 4.4 1.16 5.4 2.2 2.16 2.24 2.36 5.36 2.36 7.12v.48h-12.08c.08 1.2.6 2.56 1.44 3.4.92.92 2.04 1.08 3 1.08 1.08 0 1.88-.24 2.68-.84.68-.52 1.2-1.2 1.56-1.84m-8.4-5h7.8c-.16-.92-.6-1.72-1.2-2.28-.52-.48-1.36-.96-2.64-.96-1.36 0-2.24.56-2.76 1.08-.56.52-1 1.32-1.2 2.16m-22.86 10.68v-16.84h3.92v1.56c1.68-1.88 3.6-2 4.56-2 3.12 0 4.44 1.56 4.96 2.28.64.92 1.04 2.08 1.04 4.68v10.32h-3.92v-9.36c0-4.28-1.6-4.4-3.08-4.4-1.76 0-3.56.24-3.56 5.68v8.08zm-8.82-16.84h3.92v16.84h-3.92zm-.56-6.96c0-1.44 1.08-2.52 2.52-2.52s2.52 1.08 2.52 2.52-1.08 2.52-2.52 2.52-2.52-1.08-2.52-2.52m-8.31-5.36h3.92v29.16h-3.92zm-14.08 22.68v-4.08h9.61v4.08zm-18.97 6.48v-16.84h3.92v1.56c1.68-1.88 3.6-2 4.56-2 3.12 0 4.44 1.56 4.96 2.28.64.92 1.04 2.08 1.04 4.68v10.32h-3.92v-9.36c0-4.28-1.6-4.4-3.08-4.4-1.76 0-3.56.24-3.56 5.68v8.08zm-13.05-17.28c5.08 0 9 3.68 9 8.88 0 5.16-3.92 8.92-9 8.92s-9-3.76-9-8.92c0-5.2 3.92-8.88 9-8.88m0 14.28c3.08 0 5-2.12 5-5.36 0-3.84-2.52-5.4-5-5.4s-5 1.56-5 5.4c0 3.24 1.92 5.36 5 5.36m-74.13 3-21-48.3h-85.5l-21.9 48.3h-33L1139.67 0l94.8 211.8zm-93.9-77.1h60.6l-29.7-67.8zm-161.808 1.2v-28.2h82.498v1.5c0 34.2-10.2 62.1-29.698 81-20.7 20.1-45.3 25.5-68.1 25.5-29.1 0-49.8-8.4-68.1-27.3-19.5-20.1-29.7-46.8-29.7-75.6 0-31.2 12.6-58.2 29.1-74.7 17.1-17.4 44.4-30 75.3-30 18 0 36.6 3.9 52.2 12.6 16.498 9.3 26.698 21 32.398 30l-24.298 17.1c-6-8.4-15-17.4-24.6-22.8-11.1-6.6-23.1-8.7-35.4-8.7-26.1 0-42.9 10.8-52.8 20.7-13.2 13.2-21.3 34.5-21.3 56.1 0 20.1 7.5 40.2 20.7 54.3 13.8 14.7 30.9 20.1 50.1 20.1 17.4 0 31.8-5.1 44.7-17.7 11.1-10.8 15.6-22.5 16.8-33.9zM699.75 8.1c60 0 104.1 45 104.1 103.8s-44.1 103.8-104.1 103.8-104.1-45-104.1-103.8S639.75 8.1 699.75 8.1m0 179.4c42.9 0 73.5-31.2 73.5-75.6s-30.6-75.6-73.5-75.6-73.5 31.2-73.5 75.6 30.6 75.6 73.5 75.6m-205.73 24.3v-86.4l-65.7-113.7h34.8l46.2 80.1 46.2-80.1h34.8l-65.7 113.7v86.4zM186.012 11.7h30.6v120.6c0 10.8.3 24 6.3 34.5 6 10.2 19.5 20.7 37.2 20.7s31.2-10.5 37.2-20.7c6-10.5 6.3-23.7 6.3-34.5V11.7h30.6v128.7c0 15.9-3.3 35.1-18.6 51.9-10.5 11.4-28.2 23.4-55.5 23.4s-45-12-55.5-23.4c-15.3-16.8-18.6-36-18.6-51.9zM65.7 211.8v-86.4L0 11.7h34.8L81 91.8l46.2-80.1H162L96.3 125.4v86.4z"/></svg>
